packages/sources/icons/src/vitamix/list-settings-fill.svg

<svg width="16" height="16" viewBox="0 0 16 16" xmlns="http://www.w3.org/2000/svg"><path d="M1.33325 12H5.99992V13.3334H1.33325V12ZM1.33325 7.33335H7.33325V8.66669H1.33325V7.33335ZM1.33325 2.66669H14.6666V4.00002H1.33325V2.66669ZM13.7826 8.68335L14.5533 8.42269L15.2199 9.57735L14.6093 10.114C14.6861 10.4785 14.6861 10.8549 14.6093 11.2194L15.2199 11.756L14.5533 12.9107L13.7826 12.65C13.5093 12.8967 13.1839 13.0867 12.8259 13.2034L12.6666 14H11.3333L11.1733 13.2027C10.8194 13.0871 10.4938 12.8986 10.2173 12.6494L9.44658 12.9107L8.77992 11.756L9.39058 11.2194C9.31372 10.8549 9.31372 10.4785 9.39058 10.114L8.77992 9.57735L9.44658 8.42269L10.2173 8.68335C10.4906 8.43669 10.8159 8.24669 11.1739 8.13002L11.3333 7.33335H12.6666L12.8266 8.13069C13.1839 8.24669 13.5093 8.43735 13.7826 8.68402V8.68335ZM11.9999 11.3334C12.1767 11.3334 12.3463 11.2631 12.4713 11.1381C12.5963 11.0131 12.6666 10.8435 12.6666 10.6667C12.6666 10.4899 12.5963 10.3203 12.4713 10.1953C12.3463 10.0703 12.1767 10 11.9999 10C11.8231 10 11.6535 10.0703 11.5285 10.1953C11.4035 10.3203 11.3333 10.4899 11.3333 10.6667C11.3333 10.8435 11.4035 11.0131 11.5285 11.1381C11.6535 11.2631 11.8231 11.3334 11.9999 11.3334Z"/></svg>

<svg width="16" height="16" xmlns="http://www.w3.org/2000/svg"><path d="M1.333 12H6v1.333H1.333V12Zm0-4.667h6v1.334h-6V7.333Zm0-4.666h13.334V4H1.333V2.667Zm12.45 6.016.77-.26.667 1.154-.61.537c.076.364.076.74 0 1.105l.61.537-.667 1.155-.77-.261a2.657 2.657 0 0 1-.957.553l-.16.797h-1.333l-.16-.797a2.663 2.663 0 0 1-.956-.554l-.77.262-.667-1.155.61-.537a2.678 2.678 0 0 1 0-1.105l-.61-.537.667-1.154.77.26c.274-.246.599-.436.957-.553l.16-.797h1.333l.16.798c.357.116.682.306.956.553ZM12 11.333A.667.667 0 1 0 12 10a.667.667 0 0 0 0 1.333Z"/></svg>
